Pods/ProtonCore-UIFoundations/libraries/UIFoundations/Sources/Assets.xcassets/Images/IconSet/ic-sun.imageset/ic-sun.svg

<svg width="24" height="24" viewBox="0 0 24 24" fill="none" xmlns="http://www.w3.org/2000/svg">
<path fill-rule="evenodd" clip-rule="evenodd" d="M12 0C12.4142 0 12.75 0.335786 12.75 0.75V3C12.75 3.41421 12.4142 3.75 12 3.75C11.5858 3.75 11.25 3.41421 11.25 3V0.75C11.25 0.335786 11.5858 0 12 0ZM12 6.75C9.1005 6.75 6.75 9.1005 6.75 12C6.75 14.8995 9.1005 17.25 12 17.25C14.8995 17.25 17.25 14.8995 17.25 12C17.25 9.1005 14.8995 6.75 12 6.75ZM5.25 12C5.25 8.27208 8.27208 5.25 12 5.25C15.7279 5.25 18.75 8.27208 18.75 12C18.75 15.7279 15.7279 18.75 12 18.75C8.27208 18.75 5.25 15.7279 5.25 12ZM12.75 21C12.75 20.5858 12.4142 20.25 12 20.25C11.5858 20.25 11.25 20.5858 11.25 21V23.25C11.25 23.6642 11.5858 24 12 24C12.4142 24 12.75 23.6642 12.75 23.25V21ZM20.4853 3.5141C20.7781 3.807 20.7781 4.28187 20.4853 4.57476L18.8943 6.16575C18.6014 6.45865 18.1265 6.45865 17.8336 6.16575C17.5407 5.87286 17.5407 5.39799 17.8336 5.10509L19.4246 3.5141C19.7175 3.22121 20.1924 3.22121 20.4853 3.5141ZM6.16641 18.8936C6.4593 18.6007 6.4593 18.1258 6.16641 17.833C5.87352 17.5401 5.39864 17.5401 5.10575 17.833L3.51476 19.4239C3.22186 19.7168 3.22186 20.1917 3.51476 20.4846C3.80765 20.7775 4.28252 20.7775 4.57542 20.4846L6.16641 18.8936ZM24 12C24 12.4142 23.6642 12.75 23.25 12.75H21C20.5858 12.75 20.25 12.4142 20.25 12C20.25 11.5858 20.5858 11.25 21 11.25H23.25C23.6642 11.25 24 11.5858 24 12ZM3 12.75C3.41421 12.75 3.75 12.4142 3.75 12C3.75 11.5858 3.41421 11.25 3 11.25H0.75C0.335786 11.25 0 11.5858 0 12C0 12.4142 0.335786 12.75 0.75 12.75H3ZM20.4853 20.4859C20.1924 20.7788 19.7175 20.7788 19.4246 20.4859L17.8336 18.8949C17.5407 18.602 17.5407 18.1271 17.8336 17.8342C18.1265 17.5414 18.6014 17.5414 18.8943 17.8342L20.4853 19.4252C20.7781 19.7181 20.7781 20.193 20.4853 20.4859ZM5.10575 6.16705C5.39864 6.45994 5.87351 6.45994 6.16641 6.16705C6.4593 5.87416 6.4593 5.39928 6.16641 5.10639L4.57542 3.5154C4.28252 3.22251 3.80765 3.22251 3.51476 3.5154C3.22186 3.80829 3.22186 4.28316 3.51476 4.57606L5.10575 6.16705Z" fill="#0C0C14"/>
</svg>

<svg xmlns="http://www.w3.org/2000/svg" width="24" height="24" viewBox="0 0 24 24">
  <g class="ic-sun">
    <path fill-rule="evenodd" d="M12 0a.75.75 0 0 1 .75.75V3a.75.75 0 0 1-1.5 0V.75A.75.75 0 0 1 12 0Zm0 6.75a5.25 5.25 0 1 0 0 10.5 5.25 5.25 0 0 0 0-10.5ZM5.25 12a6.75 6.75 0 1 1 13.5 0 6.75 6.75 0 0 1-13.5 0Zm7.5 9a.75.75 0 0 0-1.5 0v2.25a.75.75 0 0 0 1.5 0V21Zm7.735-17.486a.75.75 0 0 1 0 1.06l-1.59 1.592a.75.75 0 0 1-1.061-1.06l1.59-1.592a.75.75 0 0 1 1.061 0ZM6.166 18.894a.75.75 0 1 0-1.06-1.061l-1.591 1.59a.75.75 0 0 0 1.06 1.062l1.591-1.591ZM24 12a.75.75 0 0 1-.75.75H21a.75.75 0 0 1 0-1.5h2.25A.75.75 0 0 1 24 12Zm-21 .75a.75.75 0 0 0 0-1.5H.75a.75.75 0 0 0 0 1.5H3Zm17.485 7.736a.75.75 0 0 1-1.06 0l-1.591-1.591a.75.75 0 0 1 1.06-1.06l1.591 1.59a.75.75 0 0 1 0 1.06ZM5.105 6.167a.75.75 0 0 0 1.061-1.06l-1.59-1.592a.75.75 0 1 0-1.061 1.061l1.59 1.591Z" class="Icon"/>
  </g>
</svg>
